X:1
T:the OX'S MINUET
T:the OX'S MINUET
T:Haydn.
C:Haydn.
L:1/8
M:3/4
K:C
V:1 treble 
V:1
 z g | c'(c'/b/) c'c'c'c' | ([G,E]6 | D)(a/^g/) aaaa | ([G,F]4 E)c/e/ | (ag) z (B/d/) c/e/c/e/ | %6
 (ag) z (B/d/) c/e/c/e/ | d2 g2 ^f2 | g4 :: G2 |{^FG} =f>g e>g d>^c | d2 z2 G2 | %12
{^FG} g>a f>g e>^d | e2 z2 c2 | a^g ag a=g | g^f =f3 e | d>d d2 e/g/^f/a/ | (a2 g) z z g | %18
 c'(c'/b/) c'c'c'c' | [A,^F]6 | (aa/^g/) aaaa | [G,F]6 | [EG]2 [cc']2 [Bb]2 | [cc']2 z2 :: G2 | %25
 c2 (c/d/e/f/ g)g | (^f/a/).g (f/a/).g (f/a/).g | d3 (f/e/ g/f/e/d/) | (c/e/).G (c/e/).G (c/e/).G | %29
 c2 (c/d/e/f/ g)g | (^f/a/).g (f/a/).g (f/a/).g | (d/^c/d/c/) (d/e/f/d/) (g/f/e/d/) | d>e c z :: %33
 g2 |{fg} b2 b>bb>b | b4 g2 |{^fg} c'2 c'>c'c'>c' | c'4 G2 | c2 (c/d/e/f/ g)g | %39
 (^f/a/).g (f/a/).g (f/a/).g | (d/^c/d/c/) (d/e/f/d/) (g/f/e/d/) | (d2 c) z :| %42

